fs/star_dismiss_24_filled.svg

<svg viewBox="0 0 24 24" fill="none" xmlns="http://www.w3.org/2000/svg" height="1em" width="1em">
  <path d="M10.7878 3.10263C11.283 2.09926 12.7138 2.09925 13.209 3.10263L15.567 7.88036L20.8395 8.6465C21.9468 8.8074 22.3889 10.1682 21.5877 10.9492L20.6828 11.8312C19.7421 11.3019 18.6563 11 17.5 11C13.9101 11 11 13.9101 11 17.5C11 18.1104 11.0841 18.7011 11.2414 19.2612L7.28252 21.3425C6.29213 21.8632 5.13459 21.0222 5.32374 19.9193L6.2244 14.6681L2.40916 10.9492C1.60791 10.1682 2.05005 8.8074 3.15735 8.6465L8.42988 7.88036L10.7878 3.10263ZM23 17.5C23 20.5376 20.5376 23 17.5 23C14.4624 23 12 20.5376 12 17.5C12 14.4624 14.4624 12 17.5 12C20.5376 12 23 14.4624 23 17.5ZM15.8536 15.1464C15.6583 14.9512 15.3417 14.9512 15.1464 15.1464C14.9512 15.3417 14.9512 15.6583 15.1464 15.8536L16.7929 17.5L15.1464 19.1464C14.9512 19.3417 14.9512 19.6583 15.1464 19.8536C15.3417 20.0488 15.6583 20.0488 15.8536 19.8536L17.5 18.2071L19.1464 19.8536C19.3417 20.0488 19.6583 20.0488 19.8536 19.8536C20.0488 19.6583 20.0488 19.3417 19.8536 19.1464L18.2071 17.5L19.8536 15.8536C20.0488 15.6583 20.0488 15.3417 19.8536 15.1464C19.6583 14.9512 19.3417 14.9512 19.1464 15.1464L17.5 16.7929L15.8536 15.1464Z" fill="#212121"/>
</svg>

<svg viewBox="0 0 24 24" fill="none" xmlns="http://www.w3.org/2000/svg" height="1em" width="1em">
  <path d="M10.788 3.103c.495-1.004 1.926-1.004 2.421 0l2.358 4.777 5.273.766c1.107.161 1.549 1.522.748 2.303l-.905.882a6.5 6.5 0 0 0-9.441 7.43l-3.96 2.082c-.99.52-2.147-.32-1.958-1.424l.9-5.25-3.815-3.72c-.801-.78-.359-2.142.748-2.303L8.43 7.88l2.358-4.777ZM23 17.5a5.5 5.5 0 1 1-11 0 5.5 5.5 0 0 1 11 0Zm-7.146-2.354a.5.5 0 0 0-.708.708l1.647 1.646-1.647 1.646a.5.5 0 0 0 .708.708l1.646-1.647 1.646 1.647a.5.5 0 0 0 .708-.708L18.207 17.5l1.647-1.646a.5.5 0 0 0-.708-.708L17.5 16.793l-1.646-1.647Z" fill="#212121"/>
</svg>
